assets/logo-set-protocol-grey.svg

<svg height="55" viewBox="0 0 111 55" width="111" xmlns="http://www.w3.org/2000/svg" xmlns:xlink="http://www.w3.org/1999/xlink"><linearGradient id="a"><stop offset="0" stop-color="#282138"/><stop offset="1" stop-color="#282138" stop-opacity="0"/></linearGradient><linearGradient id="b" x1="-.000188%" x2="100.000049%" xlink:href="#a" y1="49.999977%" y2="49.999977%"/><linearGradient id="c" x1="99.999324%" x2="0%" xlink:href="#a" y1="49.999917%" y2="49.999917%"/><g fill="none" fill-rule="evenodd"><path d="m18.6699381.32770833c-9.89569916 0-17.91782306 8.36196429-17.91782306 18.67675597 0 10.3147917 8.0221239 18.6767559 17.91782306 18.6767559 9.8956991 0 17.9174955-8.3619642 17.9174955-18.6767559 0-10.31479168-8.0217964-18.67675597-17.9174955-18.67675597z" fill="url(#b)"/><path d="m0 36.0050298c0 10.315119 8.02212389 18.6770833 17.917823 18.6770833 9.8956991 0 17.917823-8.3619643 17.917823-18.6770833 0-10.3147917-8.0221239-18.676756-17.917823-18.676756-9.89569911 0-17.917823 8.3619643-17.917823 18.676756" fill="url(#c)"/><path d="m110.452138 37.1033274.395212.1316071c-.966256 3.2502381-3.601769 6.5001488-8.170123 6.5001488-4.1728146 0-6.0179031-2.6792857-6.0179031-6.3243452v-16.1618155h-2.1522212v-.2196726c3.3823893-2.898631 6.9841593-5.5775893 10.4539733-8.6081548h.044204v7.6859227h4.041185v1.0977083h-4.041185v15.0202381c0 1.8886607.834628 3.1183036 2.371929 3.1183036 1.713133 0 2.679389-1.1419048 3.074929-2.2399405m-26.6013628-16.29375c-1.8008849 0-2.8113451 2.3276786-2.8113451 6.2804762 0 .4390178 0 .834494.0442035 1.2296428h5.4462036c0-5.7972619-.9220531-7.510119-2.679062-7.510119m4.5680266 16.3818155c2.1964247 0 3.8218053-.6590179 5.0077699-2.328006l.3513363.0880655c-1.1859646 6.7633631-5.7543186 8.7836309-9.2683363 8.7836309-5.0513186 0-10.014885-4.0405357-10.014885-11.7264583 0-7.3781845 4.348646-12.6483631 10.3223452-12.6483631 3.7337256 0 9.0486283 1.9763988 9.0486283 10.3210119h-12.6503983c.6587965 4.9624405 3.2943098 7.5101191 7.2035399 7.5101191m-26.3377788 6.7633631c-4.9196903 0-8.9166726-1.1422322-12.079354-2.9428274l2.7674691-8.3884822h.2193805c1.5376283 6.1488691 6.3253628 9.3110417 10.761761 9.3110417 2.503885 0 4.3486461-1.4493155 4.3486461-3.7769941 0-1.4054464-.5710443-2.7231547-3.1188053-3.8650595l-7.2916195-3.3376488c-4.3047699-2.0202678-6.5447434-5.6214583-6.5447434-9.4861905 0-4.7872916 3.0307257-10.0136012 11.8157699-10.0136012 3.9534337 0 8.5214602 1.2738393 11.1130974 2.7231548l-3.1626814 7.202381h-.219708c-1.7566814-5.4017858-5.6659115-7.993006-9.4873894-7.993006-3.2065575 0-4.348646 1.6247917-4.348646 3.0741072 0 1.4493154.7465487 2.8108928 3.0746018 3.9527976l7.5113274 3.5573214c4.8316106 2.2399405 6.2811593 5.0069643 6.2811593 8.8278274 0 6.2359524-4.6557788 11.1551786-11.6402655 11.1551786" fill="#282138"/></g></svg>

<?xml version="1.0" encoding="UTF-8"?>
<svg width="111px" height="55px" viewBox="0 0 111 55" version="1.1" xmlns="http://www.w3.org/2000/svg" xmlns:xlink="http://www.w3.org/1999/xlink">
    <!-- Generator: Sketch 52.2 (67145) - http://www.bohemiancoding.com/sketch -->
    <title>Logo</title>
    <desc>Created with Sketch.</desc>
    <defs>
        <linearGradient x1="-0.000188317206%" y1="49.9999765%" x2="100.000049%" y2="49.9999765%" id="linearGradient-1">
            <stop stop-color="#282138" offset="0%"></stop>
            <stop stop-color="#282138" stop-opacity="0" offset="100%"></stop>
        </linearGradient>
        <linearGradient x1="99.999324%" y1="49.9999168%" x2="0%" y2="49.9999168%" id="linearGradient-2">
            <stop stop-color="#282138" offset="0%"></stop>
            <stop stop-color="#282138" stop-opacity="0" offset="100%"></stop>
        </linearGradient>
    </defs>
    <g id="Designs" stroke="none" stroke-width="1" fill="none" fill-rule="evenodd">
        <g id="Home" transform="translate(-665.000000, -4169.000000)">
            <g id="JOIN-THE-WBTC-COMMUNITY" transform="translate(0.000000, 3815.000000)">
                <g id="SECTION---JOIN-THE-WBTC-COMMUNITY" transform="translate(130.000000, 85.000000)">
                    <g id="Logo-Set-Protocol" transform="translate(480.000000, 246.000000)">
                        <g id="Logo" transform="translate(55.000000, 23.000000)">
                            <path d="M18.6699381,0.327708333 C8.77423894,0.327708333 0.752115044,8.68967262 0.752115044,19.0044643 C0.752115044,29.319256 8.77423894,37.6812202 18.6699381,37.6812202 C28.5656372,37.6812202 36.5874336,29.319256 36.5874336,19.0044643 C36.5874336,8.68967262 28.5656372,0.327708333 18.6699381,0.327708333 Z" id="Fill-1" fill="url(#linearGradient-1)"></path>
                            <path d="M0,36.0050298 C0,46.3201488 8.02212389,54.6821131 17.917823,54.6821131 C27.8135221,54.6821131 35.835646,46.3201488 35.835646,36.0050298 C35.835646,25.6902381 27.8135221,17.3282738 17.917823,17.3282738 C8.02212389,17.3282738 0,25.6902381 0,36.0050298" id="Fill-4" fill="url(#linearGradient-2)"></path>
                            <path d="M110.452138,37.1033274 L110.84735,37.2349345 C109.881094,40.4851726 107.245581,43.7350833 102.677227,43.7350833 C98.5044124,43.7350833 96.6593239,41.0557976 96.6593239,37.4107381 L96.6593239,21.2489226 L94.5071027,21.2489226 L94.5071027,21.02925 C97.889492,18.130619 101.491262,15.4516607 104.961076,12.4210952 L105.00528,12.4210952 L105.00528,20.1070179 L109.046465,20.1070179 L109.046465,21.2047262 L105.00528,21.2047262 L105.00528,36.2249643 C105.00528,38.113625 105.839908,39.3432679 107.377209,39.3432679 C109.090342,39.3432679 110.056598,38.2013631 110.452138,37.1033274 M83.8507752,20.8095774 C82.0498903,20.8095774 81.0394301,23.137256 81.0394301,27.0900536 C81.0394301,27.5290714 81.0394301,27.9245476 81.0836336,28.3196964 L86.5298372,28.3196964 C86.5298372,22.5224345 85.6077841,20.8095774 83.8507752,20.8095774 M88.4188018,37.1913929 C90.6152265,37.1913929 92.2406071,36.532375 93.4265717,34.8633869 L93.777908,34.9514524 C92.5919434,41.7148155 88.0235894,43.7350833 84.5095717,43.7350833 C79.4582531,43.7350833 74.4946867,39.6945476 74.4946867,32.008625 C74.4946867,24.6304405 78.8433327,19.3602619 84.8170319,19.3602619 C88.5507575,19.3602619 93.8656602,21.3366607 93.8656602,29.6812738 L81.2152619,29.6812738 C81.8740584,34.6437143 84.5095717,37.1913929 88.4188018,37.1913929 M62.081023,43.954756 C57.1613327,43.954756 53.1643504,42.8125238 50.001669,41.0119286 L52.7691381,32.6234464 L52.9885186,32.6234464 C54.5261469,38.7723155 59.3138814,41.9344881 63.7502796,41.9344881 C66.2541646,41.9344881 68.0989257,40.4851726 68.0989257,38.157494 C68.0989257,36.7520476 67.5278814,35.4343393 64.9801204,34.2924345 L57.6885009,30.9547857 C53.383731,28.9345179 51.1437575,25.3333274 51.1437575,21.4685952 C51.1437575,16.6813036 54.1744832,11.454994 62.9595274,11.454994 C66.9129611,11.454994 71.4809876,12.7288333 74.0726248,14.1781488 L70.9099434,21.3805298 L70.6902354,21.3805298 C68.933554,15.978744 65.0243239,13.3875238 61.202846,13.3875238 C57.9962885,13.3875238 56.8542,15.0123155 56.8542,16.461631 C56.8542,17.9109464 57.6007487,19.2725238 59.9288018,20.4144286 L67.4401292,23.97175 C72.2717398,26.2116905 73.7212885,28.9787143 73.7212885,32.7995774 C73.7212885,39.0355298 69.0655097,43.954756 62.081023,43.954756" id="Fill-7" fill="#282138"></path>
                        </g>
                    </g>
                </g>
            </g>
        </g>
    </g>
</svg>
